dist/svgs/core-ui-icons/free/cil-crop.svg

<svg xmlns="http://www.w3.org/2000/svg" viewBox="0 0 512 512"><path d="M433.372 56H88V16H56v40H16v32h40v368h368v40h32v-40h40v-32h-40V78.628l40-40V16h-22.628zm-32 32L88 401.372V88zM424 424H110.628L424 110.628z"/></svg>

<svg xmlns="http://www.w3.org/2000/svg" viewBox="0 0 512 512">
  <path fill="var(--ci-primary-color, currentColor)" d="M433.372,56H88V16H56V56H16V88H56V456H424v40h32V456h40V424H456V78.628l40-40V16H473.372Zm-32,32L88,401.372V88ZM424,424H110.628L424,110.628Z" class="ci-primary"/>
</svg>
